!!!OTL: SOLDATENMUTH SIEGT UEBERALL
!!!ARE: Europa, Mitteleuropa, Deutschland
!!!SCT: B0571
!!!YEM: Copyright 1995, estate of Helmut Schaffrath.
**kern
*ICvox
*Ivox
*M6/8
*k[b-]
*F:
{8cc
=1
4cc
8a
4f
8a
=2
4cc
8b-
4g}
{8e
=3
4f
8f
8f
8g
8a
=4
[4.g
4g]}
{8cc
=5
4cc
8a
4f
8ff
=6
4ff
8dd
4bn}
{8g
=7
8.cc
16dd
8ee
8.g
16a
8bn
=8
4.cc
4r}
{8cc
=9
4ee
8cc
8.cc
16dd
8ee
=10
4ff
8cc
4a}
{8a
=11
4b-
8cc
4a
8cc
=12
2g
8r}
{8c
=13
4f
8a
4cc
8a
=14
4b-
8dd
4ff}
{8dd
=15
4cc
8a
8cc
8b-
8g
=16
4f}
{8f
4a
8f
=17
4cc
8cc
4cc
8cc
=18
4a}
{8cc
4ff
8a
=19
4cc
8cc
4cc
8cc
=20
4.f
4r}
==
!!!AGN: Staende -, Soldaten - Lied
!!!ONB: ESAC (Essen Associative Code) Database: BOEHME
!!!AMT: compound duple
!!!AIN: vox
!!!EED: Helmut Schaffrath
!!!EEV: 1.0
*-
